svgs/duotone/square-2.svg

<svg xmlns="http://www.w3.org/2000/svg" viewBox="0 0 448 512"><!-- Font Awesome Pro 6.0.0-alpha2 by @fontawesome - https://fontawesome.com License - https://fontawesome.com/license (Commercial License) --><defs><style>.fa-secondary{opacity:.4}</style></defs><path d="M384 32H64C28.654 32 0 60.654 0 96V416C0 451.346 28.654 480 64 480H384C419.346 480 448 451.346 448 416V96C448 60.654 419.346 32 384 32ZM296 384H152C142.078 384 133.188 377.906 129.609 368.625C126.031 359.375 128.531 348.875 135.875 342.219L244.313 243.906C251.359 236.969 255.625 226.906 255.625 216.25S251.359 195.531 243.625 187.938C227.391 172 200.875 172 184.609 187.938L173.594 198.719C164.141 208.062 148.969 207.875 139.656 198.406C130.375 188.938 130.531 173.719 140 164.469L151 153.687C185.797 119.5 242.453 119.5 277.25 153.687C294.25 170.375 303.625 192.594 303.625 216.25S294.25 262.125 277.25 278.812L214.188 336H296C309.25 336 320 346.75 320 360S309.25 384 296 384Z" class="fa-secondary"/><path d="M320.003 360C320.003 373.25 309.253 384 296.003 384H152.003C142.082 384 133.191 377.906 129.613 368.625C126.035 359.375 128.535 348.875 135.878 342.219L244.316 243.906C251.363 236.969 255.628 226.906 255.628 216.25S251.363 195.531 243.628 187.938C227.394 172 200.878 172 184.613 187.938L173.597 198.719C164.144 208.062 148.972 207.875 139.66 198.406C130.378 188.938 130.535 173.719 140.003 164.469L151.003 153.687C185.8 119.5 242.457 119.5 277.253 153.687C294.253 170.375 303.628 192.594 303.628 216.25S294.253 262.125 277.253 278.812L214.191 336H296.003C309.253 336 320.003 346.75 320.003 360Z" class="fa-primary"/></svg>

<svg xmlns="http://www.w3.org/2000/svg" viewBox="0 0 448 512"><!--! Font Awesome Pro 6.0.0-alpha3 by @fontawesome - https://fontawesome.com License - https://fontawesome.com/license (Commercial License) --><defs><style>.fa-secondary{opacity:.4}</style></defs><path class="fa-primary" d="M320 360c0 13.25-10.75 24-24 24h-144c-9.922 0-18.81-6.094-22.39-15.38c-3.578-9.25-1.078-19.75 6.266-26.41l108.4-98.31c7.047-6.938 11.31-17 11.31-27.66s-4.266-20.72-12-28.31C227.4 172 200.9 172 184.6 187.9L173.6 198.7C164.1 208.1 148.1 207.9 139.7 198.4C130.4 188.9 130.5 173.7 140 164.5l11-10.78c34.8-34.19 91.45-34.19 126.3 0c17 16.69 26.38 38.91 26.38 62.56s-9.375 45.88-26.38 62.56L214.2 336H296C309.3 336 320 346.8 320 360z"/><path class="fa-secondary" d="M384 32H64C28.65 32 0 60.65 0 96v320c0 35.35 28.65 64 64 64h320c35.35 0 64-28.65 64-64V96C448 60.65 419.3 32 384 32zM296 384h-144c-9.922 0-18.81-6.094-22.39-15.38c-3.578-9.25-1.078-19.75 6.266-26.41l108.4-98.31c7.047-6.938 11.31-17 11.31-27.66s-4.266-20.72-12-28.31C227.4 172 200.9 172 184.6 187.9L173.6 198.7C164.1 208.1 148.1 207.9 139.7 198.4C130.4 188.9 130.5 173.7 140 164.5l11-10.78c34.8-34.19 91.45-34.19 126.3 0c17 16.69 26.38 38.91 26.38 62.56s-9.375 45.88-26.38 62.56L214.2 336H296c13.25 0 24 10.75 24 24S309.3 384 296 384z"/></svg>
